X:139
T:Evit Gabriel
R: reel
M: 4/4
L: 1/8
K: Emin
|: EFGF EFGF | EFGA B2AB |cBAG F2GA |BAGB F4 |
EFGF EFGF | EFGA B2AB | cBAG FAGF | EGFD E4 :|
|: eAAe dcBc | dGGd cBAG | FGAc BAGF | EFGA B2cd |
eAAe dcBc | dGGd cBAG | FGAc BAGF | EGFD E2 :|

